img/customer-logo-5.svg

<svg width="209" height="39" viewBox="0 0 209 39" fill="none" xmlns="http://www.w3.org/2000/svg">
<path d="M10.9166 12.4705C10.3613 12.4715 9.78228 13.1934 9.13369 14.7125C8.37558 16.6897 7.5127 18.9383 7.5127 18.9383C7.5127 18.9383 8.45177 21.7708 8.9775 23.1642C9.50323 24.5556 9.80609 25.4071 11.1137 25.4071H11.1195C11.6747 25.4052 12.2538 24.6833 12.9024 23.1642C13.6605 21.1879 14.5234 18.9383 14.5234 18.9383C14.5234 18.9383 13.5843 16.1049 13.0586 14.7125C12.5328 13.3201 12.23 12.4677 10.9176 12.4705H10.9166Z" fill="#78788B"/>
<path d="M22.0121 8.09332C20.1873 8.09332 19.4387 9.85147 18.9758 10.8248C18.5129 11.7982 14.5223 18.9374 14.5223 18.9374C14.5223 18.9374 18.2663 25.9291 18.8263 27.05C19.3863 28.172 20.2825 29.7815 22.1073 29.7815C23.9321 29.7815 24.6807 28.0234 25.1436 27.05C25.6065 26.0767 29.597 18.9374 29.597 18.9374C29.597 18.9374 25.8531 11.9458 25.2931 10.8248C24.7331 9.70289 23.8369 8.09332 22.0121 8.09332Z" fill="#78788B"/>
<path d="M18.4881 0.44165C8.27737 0.44165 0 8.71902 0 18.9298C0 29.1405 8.27737 37.4179 18.4881 37.4179C28.6989 37.4179 36.9763 29.1405 36.9763 18.9298C36.9763 8.71902 28.6989 0.44165 18.4881 0.44165ZM18.4881 33.7893C10.2812 33.7893 3.62867 27.1367 3.62867 18.9298C3.62867 10.7229 10.2812 4.07032 18.4881 4.07032C26.695 4.07032 33.3476 10.7229 33.3476 18.9298C33.3476 27.1367 26.695 33.7893 18.4881 33.7893Z" fill="#78788B"/>
<path d="M95.6465 14.2744C94.8084 13.7525 93.7474 13.4906 92.4636 13.4906C91.8531 13.4944 91.2474 13.5935 90.6683 13.7839C90.0588 13.9801 89.4769 14.2544 88.9378 14.6002C88.4073 14.9373 87.9197 15.3373 87.4854 15.7916C87.1149 16.1745 86.8034 16.6078 86.5568 17.0802C86.3491 16.4554 86.0767 15.9107 85.7386 15.4488C85.271 14.8049 84.6396 14.2982 83.911 13.9801C83.171 13.6535 82.3119 13.4906 81.3319 13.4906C80.6575 13.4906 79.988 13.6125 79.3566 13.8497C78.7175 14.0878 78.1127 14.4116 77.5613 14.8125C77.0232 15.1983 76.5498 15.6669 76.1574 16.2002C76.0831 16.3012 76.0127 16.404 75.945 16.5097V13.7849H72.5507V30.9225H75.945V20.607C75.9403 20.0622 76.0517 19.5222 76.2717 19.0241C76.4851 18.5412 76.7955 18.1069 77.186 17.7507C77.587 17.3859 78.0518 17.0983 78.5565 16.9021C79.0975 16.6916 79.6737 16.5869 80.2537 16.5916C80.9718 16.5916 81.5814 16.7545 82.0814 17.0812C82.5824 17.4079 82.9633 17.8812 83.2243 18.5012C83.4852 19.1212 83.6157 19.8774 83.6157 20.7699V30.9216H87.0101V20.6718C87.0034 20.1165 87.1149 19.5651 87.3368 19.0555C87.552 18.5688 87.8635 18.1307 88.2511 17.766C88.653 17.3898 89.1235 17.0964 89.6388 16.9012C90.1854 16.6916 90.7674 16.5869 91.3521 16.5907C92.136 16.5907 92.7779 16.7431 93.2779 17.0478C93.7779 17.3526 94.1541 17.8145 94.4036 18.4355C94.6532 19.0565 94.7789 19.8555 94.7789 20.8346V30.9216H98.1733V20.6394C98.1733 19.0508 97.9609 17.7231 97.5371 16.6574C97.1123 15.5907 96.4818 14.7963 95.6437 14.2744H95.6465Z" fill="#78788B"/>
<path d="M57.0797 8.07233L48.2338 30.9225H51.8243L53.9844 25.2423H63.5437L65.6971 30.9225H69.4505L60.6694 8.07233H57.0788H57.0797ZM55.2759 21.848L57.014 17.2783L57.5035 15.8906C57.6997 15.3354 57.9007 14.743 58.1074 14.1115C58.314 13.4801 58.5102 12.882 58.695 12.3163C58.7264 12.2201 58.7569 12.1267 58.7874 12.0362C58.795 12.0591 58.8017 12.081 58.8093 12.1039C59.0055 12.702 59.2226 13.361 59.4617 14.0792C59.7008 14.7973 59.9131 15.4497 60.0979 16.0373C60.2827 16.6249 60.4084 16.9945 60.4732 17.1469L62.2551 21.847H55.2749L55.2759 21.848Z" fill="#78788B"/>
<path d="M146.031 9.41052H142.669V13.7849H139.111V17.0488H142.669V30.9226H146.031V17.0488H150.013V13.7849H146.031V9.41052Z" fill="#78788B"/>
<path d="M185.528 15.8964C185.236 15.5612 184.888 15.2431 184.483 14.944C183.832 14.4659 183.111 14.0916 182.345 13.8344C181.552 13.563 180.719 13.4249 179.88 13.4268C178.335 13.4268 176.953 13.8135 175.734 14.5859C174.515 15.3583 173.552 16.4136 172.846 17.7527C172.138 19.0908 171.785 20.6194 171.785 22.3385C171.785 24.0576 172.144 25.5862 172.862 26.9243C173.58 28.2625 174.553 29.3177 175.783 30.0911C177.013 30.8635 178.411 31.2502 179.977 31.2502C180.761 31.2502 181.539 31.1178 182.278 30.8587C182.993 30.6168 183.664 30.2644 184.27 29.8139C184.747 29.4635 185.17 29.0453 185.527 28.573V30.9235H188.889V6.76758H185.527V15.8974L185.528 15.8964ZM184.989 25.4214C184.577 26.2862 183.939 27.0243 183.145 27.5596C182.361 28.0815 181.458 28.3434 180.436 28.3434C179.413 28.3434 178.51 28.0825 177.726 27.5596C176.932 27.0243 176.294 26.2862 175.882 25.4214C175.436 24.5186 175.212 23.49 175.212 22.3366C175.212 21.1832 175.435 20.1546 175.882 19.2517C176.294 18.387 176.932 17.6488 177.726 17.1136C178.51 16.5917 179.413 16.3298 180.436 16.3298C181.458 16.3298 182.361 16.5907 183.145 17.1136C183.939 17.6488 184.577 18.387 184.989 19.2517C185.435 20.1546 185.659 21.1832 185.659 22.3366C185.659 23.49 185.436 24.5186 184.989 25.4214Z" fill="#78788B"/>
<path d="M164.768 24.1004C164.773 24.6824 164.662 25.2595 164.441 25.7976C164.236 26.3005 163.93 26.7558 163.543 27.1358C163.153 27.511 162.692 27.8053 162.188 28.0005C161.637 28.2129 161.049 28.3177 160.458 28.311C159.609 28.311 158.886 28.1148 158.287 27.7234C157.689 27.332 157.232 26.771 156.917 26.0424C156.602 25.3138 156.444 24.4481 156.444 23.4471V13.7849H153.082V24.3614C153.082 25.7757 153.326 26.9948 153.816 28.0177C154.305 29.0406 155.002 29.8349 155.905 30.4006C156.808 30.9663 157.869 31.2492 159.088 31.2492C160.032 31.2568 160.967 31.0616 161.83 30.6778C162.66 30.3111 163.408 29.7835 164.033 29.1272C164.311 28.8406 164.557 28.5253 164.768 28.1891V30.9225H168.13V13.7849H164.768V24.1004Z" fill="#78788B"/>
<path d="M208.459 18.404C208.099 17.4259 207.544 16.5316 206.827 15.7763C206.118 15.0354 205.269 14.442 204.33 14.0296C203.352 13.601 202.295 13.3839 201.228 13.3934C200.026 13.382 198.833 13.6096 197.72 14.063C196.671 14.4896 195.725 15.1354 194.945 15.9563C194.16 16.7926 193.544 17.7735 193.134 18.845C192.699 19.9546 192.482 21.1841 192.482 22.5337C192.482 24.2309 192.868 25.7328 193.641 27.0386C194.407 28.3386 195.513 29.4043 196.84 30.1234C198.2 30.8739 199.761 31.2492 201.524 31.2492C202.357 31.2453 203.186 31.1301 203.989 30.9063C204.814 30.6825 205.613 30.371 206.371 29.9758C207.074 29.6186 207.718 29.1567 208.281 28.6053L206.584 26.2223C205.735 26.9624 204.947 27.4738 204.217 27.7567C203.462 28.0443 202.659 28.1881 201.85 28.1815C200.653 28.1815 199.598 27.9424 198.684 27.4633C197.792 27.0062 197.054 26.2966 196.562 25.4233C196.184 24.7575 195.948 24.0013 195.856 23.1546H208.966L208.998 21.7184C209.02 20.5212 208.84 19.4174 208.459 18.405V18.404ZM198.258 17.164C199.063 16.7183 200.053 16.4945 201.228 16.4945C201.944 16.4887 202.649 16.6564 203.285 16.984C203.905 17.3011 204.442 17.7593 204.851 18.3221C205.264 18.886 205.512 19.5517 205.57 20.2479V20.4765H195.983C196.085 19.9803 196.234 19.5279 196.43 19.1221C196.816 18.2916 197.457 17.6059 198.258 17.164Z" fill="#78788B"/>
<path d="M133.659 5.75513C132.963 5.75513 132.413 5.95132 132.01 6.34276C131.607 6.7342 131.406 7.24564 131.406 7.87709C131.406 8.5514 131.603 9.07427 131.994 9.4438C132.386 9.81333 132.941 9.99905 133.659 9.99905C134.355 9.99905 134.905 9.80286 135.308 9.41142C135.71 9.01998 135.911 8.50854 135.911 7.87709C135.911 7.20279 135.715 6.67991 135.324 6.31038C134.932 5.94085 134.377 5.75513 133.659 5.75513Z" fill="#78788B"/>
<path d="M126.705 6.7666H123.344V30.9225H126.705V6.7666Z" fill="#78788B"/>
<path d="M135.388 13.7849H132.026V30.9225H135.388V13.7849Z" fill="#78788B"/>
<path d="M115.739 14.6335C114.541 13.8716 113.171 13.4906 111.625 13.4906C110.687 13.4906 109.759 13.6858 108.899 14.062C108.07 14.4087 107.312 14.9068 106.663 15.5307C106.434 15.7564 106.237 15.9859 106.075 16.2202V13.7849H102.681V38.1037H106.075V28.6825C106.185 28.8091 106.305 28.9358 106.434 29.0615C107.128 29.7187 107.935 30.2444 108.817 30.612C109.734 31.0111 110.723 31.2159 111.722 31.2159C113.224 31.2159 114.573 30.8292 115.77 30.0568C116.967 29.2844 117.908 28.2291 118.594 26.891C119.28 25.5528 119.622 24.0347 119.622 22.3375C119.622 20.6403 119.274 19.0946 118.578 17.7679C117.881 16.4402 116.935 15.3954 115.738 14.6344L115.739 14.6335ZM115.706 25.3071C115.279 26.1452 114.637 26.8548 113.845 27.3634C113.061 27.8643 112.17 28.1139 111.169 28.1139C110.146 28.1139 109.243 27.8634 108.459 27.3634C107.668 26.8548 107.026 26.1452 106.598 25.3071C106.141 24.4366 105.913 23.4461 105.913 22.3366C105.913 21.227 106.141 20.2365 106.598 19.366C107.023 18.5307 107.666 17.826 108.459 17.3259C109.243 16.8364 110.146 16.5916 111.169 16.5916C112.192 16.5916 113.095 16.8421 113.878 17.3421C114.664 17.845 115.301 18.5498 115.723 19.3822C116.169 20.2422 116.393 21.227 116.393 22.3366C116.393 23.4461 116.164 24.4366 115.707 25.3071H115.706Z" fill="#78788B"/>
</svg>

<svg width="209" height="39" fill="none" xmlns="http://www.w3.org/2000/svg"><path d="M10.917 12.47c-.556.002-1.135.723-1.783 2.242l-1.621 4.226s.939 2.833 1.464 4.226c.526 1.392.83 2.243 2.137 2.243h.005c.556-.002 1.135-.724 1.783-2.243l1.621-4.226s-.939-2.833-1.464-4.225c-.526-1.393-.829-2.245-2.141-2.242h-.001z" fill="#78788B"/><path d="M22.012 8.093c-1.825 0-2.573 1.758-3.036 2.732-.463.973-4.454 8.112-4.454 8.112s3.744 6.992 4.304 8.113c.56 1.122 1.456 2.732 3.281 2.732 1.825 0 2.574-1.759 3.037-2.732.463-.973 4.453-8.113 4.453-8.113s-3.744-6.991-4.304-8.112c-.56-1.122-1.456-2.732-3.28-2.732z" fill="#78788B"/><path d="M18.488.442C8.278.442 0 8.719 0 18.93c0 10.21 8.277 18.488 18.488 18.488 10.21 0 18.488-8.277 18.488-18.488S28.7.442 18.488.442zm0 33.347c-8.207 0-14.86-6.652-14.86-14.86 0-8.206 6.653-14.859 14.86-14.859s14.86 6.653 14.86 14.86-6.653 14.86-14.86 14.86zm77.159-19.515c-.839-.521-1.9-.783-3.183-.783a5.865 5.865 0 00-1.796.293 7.38 7.38 0 00-1.73.816 7.786 7.786 0 00-1.453 1.192 5.53 5.53 0 00-.928 1.288 5.884 5.884 0 00-.818-1.631 4.468 4.468 0 00-1.828-1.469c-.74-.327-1.6-.49-2.58-.49-.674 0-1.343.123-1.974.36a7.516 7.516 0 00-1.796.963 6.304 6.304 0 00-1.616 1.697v-2.725h-3.394v17.137h3.394V20.608a3.837 3.837 0 011.241-2.856 4.413 4.413 0 011.37-.849 4.578 4.578 0 011.698-.31c.718 0 1.327.163 1.827.49.501.326.882.8 1.143 1.42.261.62.392 1.375.392 2.268v10.152h3.394v-10.25a3.932 3.932 0 01.327-1.617c.215-.486.526-.924.914-1.289.402-.376.873-.67 1.388-.865a4.703 4.703 0 011.713-.31c.784 0 1.426.152 1.926.457.5.305.876.767 1.126 1.388.25.62.375 1.42.375 2.399v10.087h3.394V20.639c0-1.588-.212-2.916-.636-3.982-.425-1.066-1.055-1.86-1.893-2.383h.002zM57.08 8.072l-8.846 22.85h3.59l2.16-5.68h9.56l2.153 5.68h3.754l-8.782-22.85h-3.59zm-1.804 13.776l1.738-4.57.49-1.387c.196-.556.397-1.148.603-1.78l.588-1.795.092-.28.022.068c.197.598.414 1.257.653 1.975.239.718.451 1.37.636 1.958.185.588.31.957.375 1.11l1.782 4.7h-6.98v.001zM146.031 9.41h-3.362v4.375h-3.558v3.264h3.558v13.874h3.362V17.049h3.982v-3.264h-3.982V9.41zm39.497 6.486a6.495 6.495 0 00-1.045-.952 7.813 7.813 0 00-2.138-1.11 7.56 7.56 0 00-2.465-.407c-1.545 0-2.927.386-4.146 1.159-1.219.772-2.182 1.828-2.888 3.167-.708 1.338-1.061 2.866-1.061 4.585 0 1.72.359 3.248 1.077 4.586s1.691 2.394 2.921 3.167c1.23.772 2.628 1.16 4.194 1.16.784 0 1.562-.133 2.301-.392a7.21 7.21 0 001.992-1.045c.477-.35.9-.769 1.257-1.241v2.35h3.362V6.768h-3.362v9.13l.001-.002zm-.539 9.525a5.362 5.362 0 01-1.844 2.139c-.784.521-1.687.783-2.709.783-1.023 0-1.926-.26-2.71-.783a5.362 5.362 0 01-1.844-2.139c-.446-.902-.67-1.931-.67-3.084 0-1.154.223-2.182.67-3.085a5.362 5.362 0 011.844-2.138c.784-.522 1.687-.784 2.71-.784 1.022 0 1.925.26 2.709.784a5.362 5.362 0 011.844 2.138c.446.903.67 1.931.67 3.085 0 1.153-.223 2.182-.67 3.084zM164.768 24.1a4.369 4.369 0 01-.327 1.698 3.983 3.983 0 01-.898 1.338c-.39.375-.851.67-1.355.864a4.665 4.665 0 01-1.73.311c-.849 0-1.572-.196-2.171-.588-.598-.391-1.055-.952-1.37-1.68-.315-.73-.473-1.595-.473-2.596v-9.662h-3.362V24.36c0 1.415.244 2.634.734 3.657.489 1.023 1.186 1.817 2.089 2.383.903.565 1.964.848 3.183.848a6.618 6.618 0 002.742-.571 6.885 6.885 0 002.203-1.55c.278-.287.524-.603.735-.939v2.733h3.362V13.785h-3.362V24.1zm43.691-5.696a7.658 7.658 0 00-1.632-2.628 7.794 7.794 0 00-2.497-1.746 7.56 7.56 0 00-3.102-.637 9.072 9.072 0 00-3.508.67 7.97 7.97 0 00-2.775 1.893 8.836 8.836 0 00-1.811 2.889c-.435 1.11-.652 2.34-.652 3.689 0 1.697.386 3.199 1.159 4.505a8.303 8.303 0 003.199 3.084c1.36.75 2.921 1.126 4.684 1.126a9.344 9.344 0 002.465-.343 11.88 11.88 0 002.382-.93 7.74 7.74 0 001.91-1.37l-1.697-2.384c-.849.74-1.637 1.252-2.367 1.535a6.5 6.5 0 01-2.367.424c-1.197 0-2.252-.239-3.166-.718a5.112 5.112 0 01-2.122-2.04c-.378-.665-.614-1.422-.706-2.268h13.11l.032-1.437c.022-1.197-.158-2.3-.539-3.313v-.001zm-10.201-1.24c.805-.446 1.795-.67 2.97-.67a4.41 4.41 0 012.057.49c.62.317 1.157.775 1.566 1.338a3.79 3.79 0 01.719 1.926v.229h-9.587c.102-.497.251-.95.447-1.355a4.314 4.314 0 011.828-1.958zM133.659 5.755c-.696 0-1.246.196-1.649.588-.403.391-.604.903-.604 1.534 0 .674.197 1.197.588 1.567.392.37.947.555 1.665.555.696 0 1.246-.196 1.649-.588.402-.391.603-.902.603-1.534 0-.674-.196-1.197-.587-1.567-.392-.37-.947-.555-1.665-.555zm-6.954 1.012h-3.361v24.155h3.361V6.767zm8.683 7.018h-3.362v17.137h3.362V13.785zm-19.649.848c-1.198-.761-2.568-1.142-4.114-1.142-.938 0-1.866.195-2.726.571a7.28 7.28 0 00-2.236 1.469 4.846 4.846 0 00-.588.69v-2.436h-3.394v24.319h3.394v-9.421c.11.126.23.253.359.378a7.868 7.868 0 002.383 1.551c.917.4 1.906.604 2.905.604 1.502 0 2.851-.387 4.048-1.16 1.197-.772 2.138-1.827 2.824-3.165.686-1.338 1.028-2.856 1.028-4.553 0-1.698-.348-3.243-1.044-4.57-.697-1.328-1.643-2.373-2.84-3.134h.001zm-.033 10.674a5.306 5.306 0 01-1.861 2.056c-.784.501-1.675.75-2.676.75-1.023 0-1.926-.25-2.71-.75a5.322 5.322 0 01-1.861-2.056c-.457-.87-.685-1.86-.685-2.97s.228-2.1.685-2.971a5.2 5.2 0 011.861-2.04c.784-.49 1.687-.734 2.71-.734s1.926.25 2.709.75a5.229 5.229 0 011.845 2.04c.446.86.67 1.845.67 2.955s-.229 2.1-.686 2.97h-.001z" fill="#78788B"/></svg>
